dist/svgs/team-terminal.svg

<svg xmlns="http://www.w3.org/2000/svg" viewBox="0 0 512 512"><path d="M85 83H0V41q0-9 6.5-15.5T21 19h64v64zm406-64q8 0 14.5 6.5T512 41v42H128V19h363zM0 126h512v341q0 9-6.5 15.5T491 489H21q-8 0-14.5-6.5T0 467V126zm140 171l-64 64 31 30 79-79q6-7 6-15.5t-6-14.5l-79-80-31 31zm223 42H235v43h128v-43z"/></svg>

<?xml version="1.0" encoding="UTF-8" standalone="no"?><svg   xmlns:svg="http://www.w3.org/2000/svg"   xmlns="http://www.w3.org/2000/svg"   version="1.1"   width="512"   height="512"   viewBox="0 0 512 512">  <path     d="M85 83H0V41Q0 32 6.5 25.5T21 19H85V83zM491 19Q499 19 505.5 25.5T512 41V83H128V19H491zM0 126H512V467Q512 476 505.5 482.5T491 489H21Q13 489 6.5 482.5T0 467V126zM140 297L76 361L107 391L186 312Q192 305 192 296.5T186 282L107 202L76 233zM363 339H235V382H363V339z"     id="team-terminal" /></svg>
